src/actions/22/player-volume.svg

<svg version="1.1" viewBox="0 0 22 22" xmlns="http://www.w3.org/2000/svg">
 <defs>
  <style id="current-color-scheme" type="text/css">.ColorScheme-Text {
        color:#363636
      }</style>
 </defs>
 <g class="ColorScheme-Text" fill="currentColor">
  <path class="ColorScheme-Text" fill="currentColor" d="m17.139 4.4273c-0.54546-0.42773-1.1387 0.22461-0.68359 0.73242 1.6202 1.5104 2.5416 3.6249 2.5449 5.8398-0.0026 2.2205-0.92793 4.3401-2.5547 5.8516-0.44531 0.47165 0.18064 1.1484 0.67774 0.72852 1.8304-1.6992 2.8725-4.0825 2.877-6.5801-0.0026-2.4925-1.0386-4.8722-2.8613-6.5723z"/>
  <path class="ColorScheme-Text" fill="currentColor" d="m14.775 5.8883c-0.58741-0.53488-1.1988 0.22518-0.68359 0.73242 1.2147 1.1326 1.9056 2.7181 1.9082 4.3789-0.0019 1.6654-0.69594 3.2551-1.916 4.3887-0.46835 0.44623 0.17346 1.1467 0.67969 0.72852 1.423-1.3216 2.233-3.1751 2.2363-5.1172-0.0019-1.9383-0.80739-3.789-2.2246-5.1113z"/>
  <path class="ColorScheme-Text" fill="currentColor" d="m12.41 7.3492c-0.52095-0.49369-1.1551 0.22003-0.68359 0.73047 0.81045 0.75501 1.2715 1.8123 1.2734 2.9199-0.0013 1.1103-0.46396 2.1701-1.2773 2.9258-0.47259 0.42993 0.13957 1.1522 0.67969 0.73047 1.0168-0.94425 1.5955-2.2686 1.5977-3.6562-0.0017-1.3844-0.57738-2.7062-1.5898-3.6504z"/>
  <path class="ColorScheme-Text" d="m10 5-3 3h-3c-0.554 0-1 0.446-1 1v4c0 0.554 0.446 1 1 1h3l3 3z" fill="currentColor"/>
 </g>
</svg>

<svg xmlns="http://www.w3.org/2000/svg" viewBox="0 0 22 22">
    <defs>
        <style id="current-color-scheme" type="text/css">
            .ColorScheme-Text{color:#050505;opacity:.7}
        </style>
    </defs>
    <g fill="currentColor" class="ColorScheme-Text">
        <path d="M17.139 4.427c-.545-.427-1.139.225-.684.733A8 8 0 0 1 19 11a8 8 0 0 1-2.554 5.851c-.446.472.18 1.149.677.729A9 9 0 0 0 20 11a9 9 0 0 0-2.861-6.573z" class="ColorScheme-Text"/>
        <path d="M14.775 5.888c-.587-.535-1.199.225-.684.733A6 6 0 0 1 16 11a6 6 0 0 1-1.916 4.388c-.469.447.173 1.147.68.729A7 7 0 0 0 17 11a7 7 0 0 0-2.225-5.112z" class="ColorScheme-Text"/>
        <path d="M12.41 7.35c-.521-.494-1.155.22-.684.73A4 4 0 0 1 13 11a4 4 0 0 1-1.277 2.925c-.473.43.14 1.153.68.73A5 5 0 0 0 14 11a5 5 0 0 0-1.59-3.65zM10 5 7 8H4c-.554 0-1 .446-1 1v4c0 .554.446 1 1 1h3l3 3z" class="ColorScheme-Text"/>
    </g>
</svg>
